**kern	**kern	**dynam
*part1	*part1	*part1
*staff2	*staff1	*
*I"Piano	*	*
*clefF4	*clefG2	*
*k[f#c#g#]	*k[f#c#g#]	*
=1	=1	=1
*^	*	*
4ryy@	4CC# 4C#	4c# 4e 4a 4cc#	ff
8.G#L 8.B	8.DDL 8.D	8.eL 8.g#	.
16G#Jk 16B	16DDJk 16D	16eJk 16g#	<
=	=	=	=
*	*^	*	*
2e>	8ryy@	4CC#\ 4C#	8BL 8b	[ >
.	8ryy@	.	8A 8a	.
.	8F#L 8A	8DD\L 8D	8d^^ 8f#	]
.	8DJ 8F#	8BBB\J 8BB	8B^^J 8d	.
*	*v	*v	*	*
=	=	=	=
4ryy@	4EE	4C#< 4E< [4A< 4c#<	.
8AL]	4EEE 4EE	4BB< 4E< 4B<	.
8G#J	.	.	.
*v	*v	*	*
=	=	=
2AAA 2AA	2C#< 2E< 2A<	f
=:|!	=:|!	=:|!
4AAA 4AA	4cc# 4ee 4aa 4ccc#	ff
4BBB 4BB	4g# 4dd 4ee 4gg#	.
=	=	=
*^	*	*
4ee>	4CC# 4C#	8bL 8bb	>
.	.	8a 8aa	.
8ryy@	8DDL 8D	8f# 8a 8dd 8ff#	.
8ryy@	8BBBJ 8BB	8dJ 8f# 8b 8dd	.
=	=	=	=
4ryy@	4EE 4E	4c# 4e [4a 4cc#	]
8aL]>	4EEE 4EE	4B 4e 4b	.
8g#J>	.	.	.
*v	*v	*	*
=	=	=
*8ba	*	*
2AAAA;	2A; 2c# 2e 2a	f
*X8ba	*	*
==	==	==
*-	*-	*-
!!!system-decoration: {(s1,s2)}
!!!RDF**kern: > = above
!!!RDF**kern: < = below
